X:56
T:tom edwards bach
R:tamed cenol
O:traditional welsh
Z:crm
M:6/8
L:1/8
Q:3/8=100
K:Bm
B>cB dBd|fdf bfd|B>cB dBd|fdf B2F:||
B>dB FBF|A>cA FAF|F>AB AGF|F2 EF2>|
e>fe e2c|ded d2B|c>de dcB|cBA B2>||
